packages/ffe-icons/icons/open/300/md/church.svg

<svg xmlns="http://www.w3.org/2000/svg" height="24" viewBox="0 -960 960 960" width="24"><path d="M90-149.999v-206.463q0-17.93 9.771-32.498 9.771-14.568 26.306-22.039l123.924-55.385v-93.847q0-17.269 8.958-31.158 8.957-13.89 23.887-22.149l167.155-83.769v-75.771H400q-12.75 0-21.374-8.629-8.625-8.628-8.625-21.384 0-12.755 8.625-21.37 8.624-8.615 21.374-8.615h50.001v-50.001q0-12.75 8.628-21.375 8.629-8.624 21.384-8.624 12.756 0 21.371 8.624 8.615 8.625 8.615 21.375v50.001H560q12.75 0 21.375 8.628 8.624 8.629 8.624 21.384 0 12.756-8.624 21.371-8.625 8.615-21.375 8.615h-50.001v75.771l167.155 83.769q14.93 8.259 23.887 22.149 8.958 13.889 8.958 31.158v93.847l123.924 55.385q16.535 7.471 26.306 22.039 9.77 14.568 9.77 32.498v206.463q0 24.538-17.73 42.268t-42.268 17.73H566.154q-15.365 0-25.759-10.394t-10.394-25.759v-115.385q0-20.846-14.577-35.423-14.578-14.577-35.424-14.577t-35.424 14.577q-14.577 14.577-14.577 35.423v115.385q0 15.365-10.394 25.759t-25.759 10.394H149.999q-24.538 0-42.268-17.73t-17.73-42.268Zm59.999 0h220.002v-92.77q0-46.498 32.07-78.864 32.07-32.366 77.884-32.366t77.929 32.366q32.115 32.366 32.115 78.864v92.77h220.002v-208.54l-160-71.866v-133.749L480-651.155l-170.001 87.001v133.749l-160 71.866v208.54Zm330.092-277.694q21.832 0 37.024-15.283 15.192-15.282 15.192-37.115 0-21.832-15.283-37.024-15.282-15.192-37.115-15.192-21.832 0-37.024 15.283-15.192 15.282-15.192 37.115 0 21.832 15.283 37.024 15.282 15.192 37.115 15.192ZM480-400.769Z"/></svg>

<svg xmlns="http://www.w3.org/2000/svg" height="24" viewBox="0 -960 960 960" width="24"><path d="M90-150v-206.46q0-17.93 9.77-32.5T126.08-411L250-466.38v-93.85q0-17.27 8.96-31.16t23.89-22.15L450-697.31v-75.77h-50q-12.75 0-21.37-8.63-8.63-8.63-8.63-21.38 0-12.76 8.63-21.37 8.62-8.62 21.37-8.62h50v-50q0-12.75 8.63-21.37 8.63-8.63 21.38-8.63 12.76 0 21.37 8.63 8.62 8.62 8.62 21.37v50h50q12.75 0 21.37 8.63 8.63 8.63 8.63 21.39 0 12.75-8.63 21.37-8.62 8.61-21.37 8.61h-50v75.77l167.15 83.77q14.93 8.26 23.89 22.15Q710-577.5 710-560.23v93.85L833.92-411q16.54 7.47 26.31 22.04t9.77 32.5V-150q0 24.54-17.73 42.27Q834.54-90 810-90H566.15q-15.36 0-25.76-10.39Q530-110.79 530-126.15v-115.39q0-20.85-14.58-35.42-14.57-14.58-35.42-14.58t-35.42 14.58Q430-262.39 430-241.54v115.39q0 15.36-10.39 25.76Q409.21-90 393.85-90H150q-24.54 0-42.27-17.73Q90-125.46 90-150Zm60 0h220v-92.77q0-46.5 32.07-78.86Q434.14-354 479.95-354q45.82 0 77.93 32.37Q590-289.27 590-242.77V-150h220v-208.54L650-430.4v-133.75l-170-87-170 87v133.75l-160 71.86V-150Zm330.09-277.69q21.83 0 37.02-15.29 15.2-15.28 15.2-37.11t-15.29-37.02q-15.28-15.2-37.11-15.2t-37.02 15.29q-15.2 15.28-15.2 37.11t15.29 37.02q15.28 15.2 37.11 15.2Zm-.09 26.92Z"/></svg>
